src/epub/images/titlepage.svg

<?xml version="1.0" encoding="utf-8"?>
<svg xmlns="http://www.w3.org/2000/svg" xmlns:svg="http://www.w3.org/2000/svg" version="1.1" viewBox="0 0 1400 340">
	<title>The titlepage for the Standard Ebooks edition of Right Ho, Jeeves, by P. G. Wodehouse</title>
	<g>
		<path d="m 230.15716,52.807016 0,77.192984 17.59064,0 0,-30.502925 L 271.32675,130 l 22.36257,0 -26.5731,-31.906433 c 9.45029,-2.994152 15.81287,-10.760234 15.81287,-22.362574 0,-15.157895 -10.8538,-22.923977 -25.16959,-22.923977 l -27.60234,0 z m 17.59064,34.245615 0,-20.210527 2.05848,0 c 6.64327,0 14.59649,0.467836 14.59649,10.105263 0,9.637428 -7.95322,10.105264 -14.59649,10.105264 l -2.05848,0 z"/>
		<path d="m 319.81652,52.807016 -17.59065,0 0,77.192984 17.59065,0 0,-77.192984 z"/>
		<path d="m 405.90131,86.771929 -35.64912,0 0,13.567251 17.77778,0 c 0,9.45029 -8.32749,14.87719 -16.74854,14.87719 -10.8538,0 -19.64912,-10.66666 -19.64912,-23.766078 0,-13.380117 8.79532,-24.140352 19.64912,-24.140352 6.83041,0 12.72515,2.713451 17.21637,9.918129 L 400.00658,64.59649 c -6.73685,-8.140351 -16.18714,-13.192983 -29.75439,-13.192983 -21.7076,0 -37.61404,17.871346 -37.61404,40.046785 0,22.081868 16.84211,39.953218 37.61404,39.953218 15.15789,0 31.4386,-8.32749 35.64912,-27.88304 l 0,-16.748541 z"/>
		<path d="m 436.17617,99.029239 24.88889,0 0,30.970761 17.59065,0 0,-77.192984 -17.59065,0 0,30.783626 -24.88889,0 0,-30.783626 -17.59064,0 0,77.192984 17.59064,0 0,-30.970761 z"/>
		<path d="m 485.42325,68.245613 18.33918,0 0,61.754387 17.59065,0 0,-61.754387 18.33918,0 0,-15.438597 -54.26901,0 0,15.438597 z"/>
		<path d="m 599.20248,99.029239 24.88889,0 0,30.970761 17.59064,0 0,-77.192984 -17.59064,0 0,30.783626 -24.88889,0 0,-30.783626 -17.59064,0 0,77.192984 17.59064,0 0,-30.970761 z"/>
		<path d="m 654.42179,91.356724 c 0,22.549706 16.09357,40.046786 38.92398,40.046786 22.17544,0 38.83041,-17.49708 38.83041,-40.046786 0,-22.549708 -17.40351,-39.953217 -38.83041,-39.953217 -21.23977,0 -38.92398,17.403509 -38.92398,39.953217 z m 18.99415,0 c 0,-11.508772 6.36258,-23.017544 19.92983,-23.017544 13.66082,0 19.83626,11.508772 19.83626,23.017544 0,11.508776 -5.80117,23.017546 -19.83626,23.017546 -14.40936,0 -19.92983,-11.50877 -19.92983,-23.017546 z"/>
		<path d="m 755.60452,109.97661 c -5.89473,0 -10.66666,4.77193 -10.66666,10.76023 0,4.95907 3.46199,8.70176 8.04678,9.82456 -1.49708,7.76609 -7.11111,13.09942 -7.11111,13.09942 l 4.77193,3.92982 c 7.67251,-6.36257 15.7193,-15.53216 15.7193,-26.8538 0,-5.9883 -4.77193,-10.76023 -10.76024,-10.76023 z"/>
		<path d="m 846.82531,52.807016 -17.59064,0 0,50.900584 c 0,7.76608 -3.83626,10.8538 -8.88889,10.8538 -4.49123,0 -10.01169,-5.23976 -10.01169,-5.23976 l -5.61404,14.69006 c 0,0 7.01754,7.39181 18.05848,7.39181 15.4386,0 24.04678,-8.04678 24.04678,-23.20468 l 0,-55.391814 z"/>
		<path d="m 906.25803,52.807016 -44.16374,0 0,77.192984 44.16374,0 0,-15.4386 -26.5731,0 0,-15.532161 25.4503,0 0,-15.438597 -25.4503,0 0,-15.345029 26.5731,0 0,-15.438597 z"/>
		<path d="m 965.53434,52.807016 -44.16374,0 0,77.192984 44.16374,0 0,-15.4386 -26.5731,0 0,-15.532161 25.45029,0 0,-15.438597 -25.45029,0 0,-15.345029 26.5731,0 0,-15.438597 z"/>
		<path d="m 1004.7873,130 13.848,0 32.3742,-77.192984 -19.8362,0 -19.462,50.713454 -19.462,-50.713454 -19.83626,0 L 1004.7873,130 Z"/>
		<path d="m 1103.0929,52.807016 -44.1638,0 0,77.192984 44.1638,0 0,-15.4386 -26.5731,0 0,-15.532161 25.4503,0 0,-15.438597 -25.4503,0 0,-15.345029 26.5731,0 0,-15.438597 z"/>
		<path d="m 1146.6499,51.403507 c -12.4445,0 -25.1696,9.169591 -25.1696,23.578948 0,8.046784 5.4269,15.251462 14.69,19.836258 9.1696,4.584795 17.4036,7.111107 17.4036,12.725147 0,7.20468 -7.2983,7.57895 -11.1345,7.57895 -8.6082,0 -18.9006,-8.70176 -18.9006,-8.70176 l -8.7954,14.78363 c 0,0 10.9474,10.19883 29.0059,10.19883 15.0643,0 29.0994,-6.45614 29.0994,-24.88889 0,-10.105264 -9.4503,-17.40351 -18.0585,-21.052632 -8.7953,-3.742691 -16.0935,-6.83041 -16.0935,-11.134504 0,-4.210526 3.1812,-6.923976 9.1696,-6.923976 7.9532,0 15.6257,5.333333 15.6257,5.333333 l 7.1111,-14.035088 c 0,0 -9.9181,-7.298246 -23.9532,-7.298246 z"/>
	</g>
	<g>
		<path d="m 333.95834,232.10526 0,57.89474 13.19298,0 0,-21.47368 7.92982,0 c 11.29825,0 19.78948,-6.66667 19.78948,-18.5965 0,-11.99999 -8.49123,-17.82456 -19.78948,-17.82456 l -21.1228,0 z M 347.15132,258 l 0,-15.36842 3.7193,0 c 5.19298,0 10.10526,1.75439 10.10526,7.7193 0,5.89473 -4.91228,7.64912 -10.10526,7.64912 l -3.7193,0 z"/>
		<path d="m 393.69627,274.98246 c -4.42105,0 -8,3.57894 -8,8.07017 0,4.42105 3.57895,8 8,8 4.49123,0 8.07018,-3.57895 8.07018,-8 0,-4.49123 -3.57895,-8.07017 -8.07018,-8.07017 z"/>
		<path d="m 491.76974,257.57895 -26.73684,0 0,10.17544 13.33333,0 c 0,7.08772 -6.24561,11.15789 -12.5614,11.15789 -8.14035,0 -14.73685,-8 -14.73685,-17.82456 0,-10.03509 6.5965,-18.10526 14.73685,-18.10526 5.1228,0 9.54386,2.03508 12.91228,7.43859 l 8.63158,-9.47368 c -5.05264,-6.10526 -12.14035,-9.89474 -22.31579,-9.89474 -16.2807,0 -28.21053,13.40351 -28.21053,30.03509 0,16.5614 12.63158,29.96491 28.21053,29.96491 11.36842,0 23.57894,-6.24561 26.73684,-20.91228 l 0,-12.5614 z"/>
		<path d="m 510.53289,274.98246 c -4.42105,0 -8,3.57894 -8,8.07017 0,4.42105 3.57895,8 8,8 4.49123,0 8.07018,-3.57895 8.07018,-8 0,-4.49123 -3.57895,-8.07017 -8.07018,-8.07017 z"/>
		<path d="m 594.64584,290 14.59649,0 16.49123,-57.89474 -14.59649,0 -9.89474,39.7193 -0.35088,0 -10.52631,-39.7193 -9.96492,0 -10.52631,39.7193 -0.35088,0 -9.89474,-39.7193 -14.66666,0 16.49123,57.89474 14.66666,0 9.26316,-32.49123 L 594.64584,290 Z"/>
		<path d="m 629.10855,261.01754 c 0,16.91228 12.07017,30.03509 29.19298,30.03509 16.63158,0 29.12281,-13.12281 29.12281,-30.03509 0,-16.91228 -13.05263,-29.96491 -29.12281,-29.96491 -15.92982,0 -29.19298,13.05263 -29.19298,29.96491 z m 14.24561,0 c 0,-8.63157 4.77193,-17.26315 14.94737,-17.26315 10.24562,0 14.87719,8.63158 14.87719,17.26315 0,8.63158 -4.35087,17.26316 -14.87719,17.26316 -10.80702,0 -14.94737,-8.63158 -14.94737,-17.26316 z"/>
		<path d="m 698.2456,232.10526 0,57.89474 16.77193,0 c 15.92982,0 29.19298,-12.07018 29.19298,-28.98246 0,-16.8421 -13.33333,-28.91228 -29.19298,-28.91228 l -16.77193,0 z m 13.19298,46.10527 0,-34.31579 2.03509,0 c 9.82456,0 16.49123,7.50877 16.49123,17.19298 -0.0702,9.68421 -6.73685,17.12281 -16.49123,17.12281 l -2.03509,0 z"/>
		<path d="m 788.17764,232.10526 -33.12281,0 0,57.89474 33.12281,0 0,-11.57895 -19.92982,0 0,-11.64912 19.08771,0 0,-11.57895 -19.08771,0 0,-11.50877 19.92982,0 0,-11.57895 z"/>
		<path d="m 813.95503,266.77193 18.66667,0 0,23.22807 13.19298,0 0,-57.89474 -13.19298,0 0,23.08772 -18.66667,0 0,-23.08772 -13.19298,0 0,57.89474 13.19298,0 0,-23.22807 z"/>
		<path d="m 856.61954,261.01754 c 0,16.91228 12.07017,30.03509 29.19298,30.03509 16.63158,0 29.1228,-13.12281 29.1228,-30.03509 0,-16.91228 -13.05263,-29.96491 -29.1228,-29.96491 -15.92983,0 -29.19298,13.05263 -29.19298,29.96491 z m 14.24561,0 c 0,-8.63157 4.77193,-17.26315 14.94737,-17.26315 10.24561,0 14.87719,8.63158 14.87719,17.26315 0,8.63158 -4.35088,17.26316 -14.87719,17.26316 -10.80702,0 -14.94737,-8.63158 -14.94737,-17.26316 z"/>
		<path d="m 970.24778,232.10526 -13.19298,0 0,33.47369 c 0,9.68421 -2.94737,12.49123 -9.40351,12.49123 -6.45614,0 -9.40351,-2.80702 -9.40351,-12.49123 l 0,-33.47369 -13.19298,0 0,37.33334 c 0,14.31579 7.85965,21.61403 22.59649,21.61403 14.73684,0 22.59649,-7.29824 22.59649,-21.61403 l 0,-37.33334 z"/>
		<path d="m 1002.9397,231.05263 c -9.33335,0 -18.87721,6.8772 -18.87721,17.68421 0,6.03509 4.07017,11.4386 11.01754,14.8772 6.87717,3.43859 13.05267,5.33333 13.05267,9.54385 0,5.40351 -5.4737,5.68422 -8.35091,5.68422 -6.45615,0 -14.17544,-6.52632 -14.17544,-6.52632 l -6.59649,11.08772 c 0,0 8.21052,7.64912 21.75434,7.64912 11.2983,0 21.8246,-4.8421 21.8246,-18.66666 0,-7.57895 -7.0877,-13.05264 -13.5439,-15.78948 -6.5964,-2.80702 -12.07013,-5.12281 -12.07013,-8.35088 0,-3.15789 2.38596,-5.19298 6.87723,-5.19298 5.9649,0 11.7193,4 11.7193,4 l 5.3333,-10.52631 c 0,0 -7.4386,-5.47369 -17.9649,-5.47369 z"/>
		<path d="m 1066.8783,232.10526 -33.1228,0 0,57.89474 33.1228,0 0,-11.57895 -19.9299,0 0,-11.64912 19.0878,0 0,-11.57895 -19.0878,0 0,-11.50877 19.9299,0 0,-11.57895 z"/>
	</g>
</svg>

<?xml version="1.0" encoding="utf-8"?>
<svg xmlns="http://www.w3.org/2000/svg" xmlns:svg="http://www.w3.org/2000/svg" version="1.1" viewBox="0 0 1400 340">
	<title>The titlepage for the Standard Ebooks edition of Right Ho, Jeeves, by P. G. Wodehouse</title>
	<g aria-label="RIGHT HO, JEEVES">
		<path d="M 230.15716,52.807016 V 130 H 247.7478 V 99.497075 L 271.32675,130 h 22.36257 l -26.5731,-31.906433 c 9.45029,-2.994152 15.81287,-10.760234 15.81287,-22.362574 0,-15.157895 -10.8538,-22.923977 -25.16959,-22.923977 z M 247.7478,87.052631 V 66.842104 h 2.05848 c 6.64327,0 14.59649,0.467836 14.59649,10.105263 0,9.637428 -7.95322,10.105264 -14.59649,10.105264 z"/>
		<path d="M 319.81652,52.807016 H 302.22587 V 130 h 17.59065 z"/>
		<path d="m 405.90131,86.771929 h -35.64912 v 13.567251 h 17.77778 c 0,9.45029 -8.32749,14.87719 -16.74854,14.87719 -10.8538,0 -19.64912,-10.66666 -19.64912,-23.766078 0,-13.380117 8.79532,-24.140352 19.64912,-24.140352 6.83041,0 12.72515,2.713451 17.21637,9.918129 L 400.00658,64.59649 c -6.73685,-8.140351 -16.18714,-13.192983 -29.75439,-13.192983 -21.7076,0 -37.61404,17.871346 -37.61404,40.046785 0,22.081868 16.84211,39.953218 37.61404,39.953218 15.15789,0 31.4386,-8.32749 35.64912,-27.88304 z"/>
		<path d="m 436.17617,99.029239 h 24.88889 V 130 h 17.59065 V 52.807016 H 461.06506 V 83.590642 H 436.17617 V 52.807016 H 418.58553 V 130 h 17.59064 z"/>
		<path d="m 485.42325,68.245613 h 18.33918 V 130 h 17.59065 V 68.245613 h 18.33918 V 52.807016 h -54.26901 z"/>
		<path d="m 599.20248,99.029239 h 24.88889 V 130 h 17.59064 V 52.807016 H 624.09137 V 83.590642 H 599.20248 V 52.807016 H 581.61184 V 130 h 17.59064 z"/>
		<path d="m 654.42179,91.356724 c 0,22.549706 16.09357,40.046786 38.92398,40.046786 22.17544,0 38.83041,-17.49708 38.83041,-40.046786 0,-22.549708 -17.40351,-39.953217 -38.83041,-39.953217 -21.23977,0 -38.92398,17.403509 -38.92398,39.953217 z m 18.99415,0 c 0,-11.508772 6.36258,-23.017544 19.92983,-23.017544 13.66082,0 19.83626,11.508772 19.83626,23.017544 0,11.508776 -5.80117,23.017546 -19.83626,23.017546 -14.40936,0 -19.92983,-11.50877 -19.92983,-23.017546 z"/>
		<path d="m 755.60452,109.97661 c -5.89473,0 -10.66666,4.77193 -10.66666,10.76023 0,4.95907 3.46199,8.70176 8.04678,9.82456 -1.49708,7.76609 -7.11111,13.09942 -7.11111,13.09942 l 4.77193,3.92982 c 7.67251,-6.36257 15.7193,-15.53216 15.7193,-26.8538 0,-5.9883 -4.77193,-10.76023 -10.76024,-10.76023 z"/>
		<path d="M 846.82531,52.807016 H 829.23467 V 103.7076 c 0,7.76608 -3.83626,10.8538 -8.88889,10.8538 -4.49123,0 -10.01169,-5.23976 -10.01169,-5.23976 l -5.61404,14.69006 c 0,0 7.01754,7.39181 18.05848,7.39181 15.4386,0 24.04678,-8.04678 24.04678,-23.20468 z"/>
		<path d="M 906.25803,52.807016 H 862.09429 V 130 h 44.16374 v -15.4386 h -26.5731 V 99.029239 h 25.4503 V 83.590642 h -25.4503 V 68.245613 h 26.5731 z"/>
		<path d="M 965.53434,52.807016 H 921.3706 V 130 h 44.16374 v -15.4386 h -26.5731 V 99.029239 h 25.45029 V 83.590642 H 938.96124 V 68.245613 h 26.5731 z"/>
		<path d="m 1004.7873,130 h 13.848 l 32.3742,-77.192984 h -19.8362 l -19.462,50.713454 -19.462,-50.713454 h -19.83626 z"/>
		<path d="m 1103.0929,52.807016 h -44.1638 V 130 h 44.1638 v -15.4386 h -26.5731 V 99.029239 h 25.4503 V 83.590642 h -25.4503 V 68.245613 h 26.5731 z"/>
		<path d="m 1146.6499,51.403507 c -12.4445,0 -25.1696,9.169591 -25.1696,23.578948 0,8.046784 5.4269,15.251462 14.69,19.836258 9.1696,4.584795 17.4036,7.111107 17.4036,12.725147 0,7.20468 -7.2983,7.57895 -11.1345,7.57895 -8.6082,0 -18.9006,-8.70176 -18.9006,-8.70176 l -8.7954,14.78363 c 0,0 10.9474,10.19883 29.0059,10.19883 15.0643,0 29.0994,-6.45614 29.0994,-24.88889 0,-10.105264 -9.4503,-17.40351 -18.0585,-21.052632 -8.7953,-3.742691 -16.0935,-6.83041 -16.0935,-11.134504 0,-4.210526 3.1812,-6.923976 9.1696,-6.923976 7.9532,0 15.6257,5.333333 15.6257,5.333333 l 7.1111,-14.035088 c 0,0 -9.9181,-7.298246 -23.9532,-7.298246 z"/>
	</g>
	<g aria-label="P. G. WODEHOUSE">
		<path d="M 333.95834,232.10526 V 290 h 13.19298 v -21.47368 h 7.92982 c 11.29825,0 19.78948,-6.66667 19.78948,-18.5965 0,-11.99999 -8.49123,-17.82456 -19.78948,-17.82456 z M 347.15132,258 v -15.36842 h 3.7193 c 5.19298,0 10.10526,1.75439 10.10526,7.7193 0,5.89473 -4.91228,7.64912 -10.10526,7.64912 z"/>
		<path d="m 393.69627,274.98246 c -4.42105,0 -8,3.57894 -8,8.07017 0,4.42105 3.57895,8 8,8 4.49123,0 8.07018,-3.57895 8.07018,-8 0,-4.49123 -3.57895,-8.07017 -8.07018,-8.07017 z"/>
		<path d="M 491.76974,257.57895 H 465.0329 v 10.17544 h 13.33333 c 0,7.08772 -6.24561,11.15789 -12.5614,11.15789 -8.14035,0 -14.73685,-8 -14.73685,-17.82456 0,-10.03509 6.5965,-18.10526 14.73685,-18.10526 5.1228,0 9.54386,2.03508 12.91228,7.43859 l 8.63158,-9.47368 c -5.05264,-6.10526 -12.14035,-9.89474 -22.31579,-9.89474 -16.2807,0 -28.21053,13.40351 -28.21053,30.03509 0,16.5614 12.63158,29.96491 28.21053,29.96491 11.36842,0 23.57894,-6.24561 26.73684,-20.91228 z"/>
		<path d="m 510.53289,274.98246 c -4.42105,0 -8,3.57894 -8,8.07017 0,4.42105 3.57895,8 8,8 4.49123,0 8.07018,-3.57895 8.07018,-8 0,-4.49123 -3.57895,-8.07017 -8.07018,-8.07017 z"/>
		<path d="m 594.64584,290 h 14.59649 l 16.49123,-57.89474 h -14.59649 l -9.89474,39.7193 h -0.35088 l -10.52631,-39.7193 h -9.96492 l -10.52631,39.7193 h -0.35088 l -9.89474,-39.7193 H 544.96163 L 561.45286,290 h 14.66666 l 9.26316,-32.49123 z"/>
		<path d="m 629.10855,261.01754 c 0,16.91228 12.07017,30.03509 29.19298,30.03509 16.63158,0 29.12281,-13.12281 29.12281,-30.03509 0,-16.91228 -13.05263,-29.96491 -29.12281,-29.96491 -15.92982,0 -29.19298,13.05263 -29.19298,29.96491 z m 14.24561,0 c 0,-8.63157 4.77193,-17.26315 14.94737,-17.26315 10.24562,0 14.87719,8.63158 14.87719,17.26315 0,8.63158 -4.35087,17.26316 -14.87719,17.26316 -10.80702,0 -14.94737,-8.63158 -14.94737,-17.26316 z"/>
		<path d="M 698.2456,232.10526 V 290 h 16.77193 c 15.92982,0 29.19298,-12.07018 29.19298,-28.98246 0,-16.8421 -13.33333,-28.91228 -29.19298,-28.91228 z m 13.19298,46.10527 v -34.31579 h 2.03509 c 9.82456,0 16.49123,7.50877 16.49123,17.19298 -0.0702,9.68421 -6.73685,17.12281 -16.49123,17.12281 z"/>
		<path d="M 788.17764,232.10526 H 755.05483 V 290 h 33.12281 v -11.57895 h -19.92982 v -11.64912 h 19.08771 v -11.57895 h -19.08771 v -11.50877 h 19.92982 z"/>
		<path d="M 813.95503,266.77193 H 832.6217 V 290 h 13.19298 V 232.10526 H 832.6217 v 23.08772 H 813.95503 V 232.10526 H 800.76205 V 290 h 13.19298 z"/>
		<path d="m 856.61954,261.01754 c 0,16.91228 12.07017,30.03509 29.19298,30.03509 16.63158,0 29.1228,-13.12281 29.1228,-30.03509 0,-16.91228 -13.05263,-29.96491 -29.1228,-29.96491 -15.92983,0 -29.19298,13.05263 -29.19298,29.96491 z m 14.24561,0 c 0,-8.63157 4.77193,-17.26315 14.94737,-17.26315 10.24561,0 14.87719,8.63158 14.87719,17.26315 0,8.63158 -4.35088,17.26316 -14.87719,17.26316 -10.80702,0 -14.94737,-8.63158 -14.94737,-17.26316 z"/>
		<path d="M 970.24778,232.10526 H 957.0548 v 33.47369 c 0,9.68421 -2.94737,12.49123 -9.40351,12.49123 -6.45614,0 -9.40351,-2.80702 -9.40351,-12.49123 V 232.10526 H 925.0548 v 37.33334 c 0,14.31579 7.85965,21.61403 22.59649,21.61403 14.73684,0 22.59649,-7.29824 22.59649,-21.61403 z"/>
		<path d="m 1002.9397,231.05263 c -9.33335,0 -18.87721,6.8772 -18.87721,17.68421 0,6.03509 4.07017,11.4386 11.01754,14.8772 6.87717,3.43859 13.05267,5.33333 13.05267,9.54385 0,5.40351 -5.4737,5.68422 -8.35091,5.68422 -6.45615,0 -14.17544,-6.52632 -14.17544,-6.52632 l -6.59649,11.08772 c 0,0 8.21052,7.64912 21.75434,7.64912 11.2983,0 21.8246,-4.8421 21.8246,-18.66666 0,-7.57895 -7.0877,-13.05264 -13.5439,-15.78948 -6.5964,-2.80702 -12.07013,-5.12281 -12.07013,-8.35088 0,-3.15789 2.38596,-5.19298 6.87723,-5.19298 5.9649,0 11.7193,4 11.7193,4 l 5.3333,-10.52631 c 0,0 -7.4386,-5.47369 -17.9649,-5.47369 z"/>
		<path d="m 1066.8783,232.10526 h -33.1228 V 290 h 33.1228 v -11.57895 h -19.9299 v -11.64912 h 19.0878 v -11.57895 h -19.0878 v -11.50877 h 19.9299 z"/>
	</g>
</svg>
